icons/1_Primary/Storj.svg

<svg width="1024" height="1024" fill="none" xmlns="http://www.w3.org/2000/svg"><g clip-path="url(#a)"><path d="M512 1024c282.77 0 512-229.23 512-512S794.77 0 512 0 0 229.23 0 512s229.23 512 512 512Z" fill="#728DBE"/><path d="M512 800.11c-26.28 0-47.67-20.95-48.38-47.06l-136.19-78.62c-55.07 28.4-100.71-50.01-48.38-83.8V433.38c-52.35-33.83-6.67-112.19 48.38-83.8l136.19-78.62c2.56-61.92 94.25-61.82 96.76 0l136.18 78.63c55.07-28.41 100.71 50.01 48.38 83.8v157.25c52.35 33.83 6.67 112.19-48.38 83.8l-136.19 78.62c-.68 26.12-22.19 47.09-48.38 47.06l.01-.01Zm0-504.77c.14 0 .65 0 .78-.01h-.16c.21 0 .42 0 .63-.02l-.47.02c.23 0 .46-.02.68-.03h-.21c.21 0 .42-.01.64-.03l-.42.03c.21-.01.41-.03.62-.05l-.2.02c.19-.02.37-.03.56-.05l-.36.04c.23-.02.45-.04.68-.07l-.32.04c.21-.02.42-.05.63-.08l-.31.04c.19-.02.38-.05.57-.08l-.26.04c.24-.03.47-.07.71-.11l-.44.07.57-.09-.13.02c.2-.03.4-.07.6-.11l-.46.08c.21-.04.42-.07.63-.12l-.16.03c.25-.05.51-.1.76-.16l-.6.13c.6-.12 1.19-.26 1.77-.43l-.35.1c.19-.05.39-.11.58-.16l-.22.07.51-.15-.29.09c24.94-6.98 19.74-45.43-6.54-45.15-26.3-.26-31.47 38.23-6.49 45.17l-.35-.11c.18.05.35.11.53.16l-.18-.05c.19.06.38.11.57.16l-.39-.11c.2.06.41.11.62.17l-.22-.06c.52.14 1.06.26 1.59.36l-.22-.04c.21.04.43.08.65.12l-.43-.08c.18.03.36.07.53.1l-.11-.02.58.09-.47-.07c.24.04.48.08.72.11l-.24-.03c.19.03.37.05.56.07l-.32-.04c.21.03.42.05.64.08l-.32-.04c.23.03.45.05.68.07l-.36-.03c.19.02.37.04.56.05l-.2-.02c.21.02.41.03.62.05l-.42-.03c.21.02.42.03.63.04h-.21c.23 0 .45.01.68.02l-.47-.02c.42.02.83.03 1.25.03l-.03-.02Zm74.92 158.17 85.74-49.5c-.77-3.04-1.24-6.15-1.41-9.27v.11c-.04-.86-.07-1.72-.07-2.58v.32c-.08-8.61 2.19-17.19 6.48-24.64L553.91 296.5c-6.24 10.86-16.84 19.11-28.92 22.43v93.21c26.48 3.27 49.22 19.05 61.92 41.38l.01-.01Zm-145.43 1.97c11.85-22.25 33.27-38.01 58.16-42.6V319.1c-12.35-3.2-23.22-11.55-29.57-22.61l-123.75 71.45c5.1 8.82 7.31 19.25 6.21 29.38v-.03a48.705 48.705 0 0 1-1.07 6.22l90.02 51.97Zm289.63-43.37c11.02-6.36 14.8-20.46 8.44-31.48-12.61-22.46-47.91-8.78-42.57 16.01l-.05-.27c.03.17.07.35.1.52l-.05-.24c.04.22.09.44.14.66l-.09-.42c.05.23.1.46.16.7l-.07-.28c.04.18.09.36.13.55l-.07-.27c.05.2.1.4.15.59l-.09-.33c.06.22.11.43.18.64l-.09-.32c.05.18.1.37.16.55l-.07-.23c.22.77.49 1.54.79 2.29l-.11-.28c.08.21.17.42.26.63l-.14-.35.24.57-.1-.22c.07.18.15.35.23.52l-.13-.3c.1.23.2.45.31.67l-.17-.37c.08.19.17.37.26.56l-.09-.18c.09.18.18.37.27.55l-.18-.37c.11.23.22.45.34.67l-.16-.31c.51 1.01 1.1 1.99 1.75 2.91l-.15-.22c.29.42.59.83.91 1.23l-.14-.18c.11.14.22.28.33.41l-.19-.23c.15.19.3.37.46.56l-.27-.32c.13.15.25.31.38.46l-.11-.13.35.41-.24-.27c.84.98 1.77 1.89 2.76 2.72l-.38-.32c.15.13.31.26.46.39l-.08-.06c7.21 5.98 17.66 7.17 26.24 2.21l-.01-.03Zm-410.73-3.34c.33-.32.66-.65.97-.99l-.09.1c.14-.15.28-.31.42-.46l-.33.36c.15-.16.3-.33.45-.5l-.12.13c.14-.16.28-.33.42-.49l-.31.36c.13-.14.25-.29.37-.44l-.07.08c.12-.14.23-.28.35-.43l-.28.35c.16-.19.32-.39.47-.59l-.19.24c.13-.16.26-.33.38-.5l-.19.25c.12-.15.23-.3.34-.46l-.15.2c.12-.16.24-.33.36-.5l-.21.29.38-.53-.17.24c.48-.68.94-1.4 1.35-2.14l-.18.32c.34-.58.64-1.17.93-1.78l-.17.35c.07-.14.13-.27.2-.41l-.03.06c.12-.25.23-.5.34-.76l-.07.17c.39-.91.73-1.83 1-2.77l-.05.16c.06-.2.12-.4.17-.6l-.12.44.18-.64-.05.2.15-.57-.09.37c.13-.49.23-.98.33-1.47l-.04.18c5.32-24.78-29.97-38.44-42.58-15.99-13.4 22.69 17.47 46.41 35.94 28.14l-.01.03Zm17.77 188.38 54.9-31.7c-25.5-28.96-16.42-80.36 16.76-98.97l-70.55-40.73c-8.99 9.41-21.86 14.84-34.86 14.82v142.89c12.47-.02 24.83 4.97 33.75 13.7v-.01Zm348.07-.36c2.76-2.64 5.84-4.93 9.14-6.84l-.27.15a48.495 48.495 0 0 1 16.33-5.95l-.64.11c2.9-.54 5.85-.81 8.81-.82V440.55c-12.83.02-25.51-5.25-34.5-14.44l-87.34 50.42c27.81 3.49 49.39 27.01 49.85 55.65.23 13.26-4.17 25.75-11.69 35.55l50.31 29.05v.01Zm-177.21-31.96h81.55c41.65-.71 41.65-62.68 0-63.38h-17.46c3.46-67.26-85.85-90.36-112.14-27.7l-3.13 8.11c-63.1-9.33-76.01 77.59-12.87 82.97 1.14 0 61.69.02 62.79 0 .35-.01.91.01 1.27 0h-.01Zm-38.94 162.69c6.35-11.06 17.22-19.41 29.57-22.6V590.19c-21.22-1.17-67.09 4.39-85.61-7.57l-62.97 36.36c1.14 4.1 1.72 8.34 1.74 12.59v-.31a49.109 49.109 0 0 1-.55 7.85l.07-.47c-.32 2.28-.81 4.54-1.46 6.76l.06-.2a48.833 48.833 0 0 1-4.6 10.87l123.75 71.45Zm83.84 0 123.75-71.45c-.68-1.19-1.32-2.4-1.9-3.65l.07.14a48.586 48.586 0 0 1-4.65-21.31v.31c.02-4.42.65-8.84 1.88-13.09l-58.3-33.66c-7.35 3.45-15.55 5.37-24.2 5.37H525v114.91c12.08 3.32 22.68 11.57 28.92 22.43Zm-237.99-75.69c8.77-5.06 12.95-15.02 11.09-24.43l.04.2a23.133 23.133 0 0 0-2.07-6.1l.11.22c-.08-.16-.16-.33-.25-.49l.14.27a23.428 23.428 0 0 0-1.79-2.97l.16.23c-.11-.17-.23-.33-.35-.49l.19.26c-.12-.17-.25-.35-.38-.52l.19.25c-.14-.19-.28-.37-.42-.56l.23.3c-.11-.15-.22-.29-.34-.44l.1.13c-.13-.17-.27-.34-.41-.51l.3.37-.39-.48.09.11c-17.36-21.44-51.81 2.08-37.75 26.19 6.36 11.02 20.46 14.8 31.48 8.43l.03.03Zm423.62-8.44c13.71-23.36-18.82-46.99-36.8-27.26l.17-.18-.36.39.2-.21c-.13.14-.26.29-.39.43l.2-.22c-.14.15-.27.31-.41.46l.21-.24-.41.47.19-.23c-.13.16-.27.31-.4.47l.2-.24c-.46.55-.9 1.13-1.31 1.72l.13-.19c-.57.8-1.09 1.66-1.56 2.54l.11-.21c-.11.21-.22.41-.32.62l.21-.41c-.1.2-.2.39-.3.59l.09-.18c-.09.17-.17.35-.25.52l.16-.34c-.1.21-.2.41-.3.62l.13-.28c-.23.49-.44.98-.64 1.48l.07-.19c-.38.94-.69 1.9-.94 2.87l.08-.32-.15.59.07-.27c-.05.19-.09.38-.14.57l.07-.3c-.05.22-.1.44-.15.67l.08-.37c-.05.2-.09.41-.13.61l.05-.25c-.04.18-.07.36-.11.54l.06-.29c-5.33 24.79 29.97 38.45 42.57 16.01l.02.01ZM512 774.77c25.26.33 31.61-36.07 8.26-44.57l.19.08-.48-.18.29.11c-.19-.07-.37-.14-.56-.21l.28.1c-.18-.07-.36-.13-.54-.19l.26.09c-.19-.07-.38-.13-.57-.19l.31.1c-.2-.07-.4-.13-.6-.2l.29.09c-.2-.06-.4-.13-.6-.18l.3.09c-.17-.05-.35-.11-.53-.16l.22.06c-.19-.06-.38-.11-.58-.16l.35.1c-.21-.06-.42-.12-.63-.17l.27.07c-.57-.15-1.14-.28-1.72-.39l.3.06a9.172 9.172 0 0 0-.55-.1l.25.04c-.21-.04-.42-.07-.62-.11l.38.06c-.22-.04-.44-.07-.67-.11l.29.04c-.15-.02-.29-.04-.44-.07l.15.02-.69-.09.53.07c-.2-.03-.41-.05-.61-.08h.08c-.19-.01-.39-.03-.58-.05l.51.05c-.22-.02-.44-.05-.66-.06h.16c-.22 0-.43-.02-.65-.04l.5.04c-.21-.02-.42-.03-.63-.04h.14c-.21 0-.41-.01-.62-.02l.48.02c-.66-.04-1.39-.04-2.05-.02h.16c-.21 0-.43 0-.64.02l.48-.02c-.21 0-.41.02-.62.03h.14c-.21 0-.42.02-.63.04l.5-.04c-.22.01-.44.03-.65.05h.16c-.22 0-.44.03-.66.05l.51-.05-.58.06h.08c-.21.01-.41.04-.62.07l.54-.07c-.22.03-.45.05-.67.09l.13-.02c-.15.02-.3.04-.45.07l.32-.05c-.23.03-.46.07-.69.11l.36-.06-.55.09.19-.03c-.19.03-.37.07-.56.11l.37-.07c-.59.11-1.17.24-1.74.39l.22-.06c-.21.05-.41.11-.62.17l.39-.11c-.19.05-.38.1-.57.16l.17-.05c-.18.05-.37.11-.55.16l.37-.11c-.21.06-.42.13-.63.19l.25-.08c-.19.06-.38.12-.57.19l.32-.11c-.2.06-.39.13-.58.2l.26-.09c-.18.06-.36.12-.54.19l.28-.1-.57.21.29-.11c-.15.06-.31.11-.46.17l.16-.06c-23.35 8.5-16.97 44.91 8.27 44.57h.02Z" fill="#fff"/></g><defs><clipPath id="a"><path fill="#fff" d="M0 0h1024v1024H0z"/></clipPath></defs></svg>

<svg width="1024" height="1024" viewBox="0 0 1024 1024" fill="none" xmlns="http://www.w3.org/2000/svg">
<g clip-path="url(#clip0_2_3564)">
<path d="M512 1024C794.77 1024 1024 794.77 1024 512C1024 229.23 794.77 0 512 0C229.23 0 0 229.23 0 512C0 794.77 229.23 1024 512 1024Z" fill="#728DBE"/>
<path d="M512 800.11C485.72 800.11 464.33 779.16 463.62 753.05L327.43 674.43C272.36 702.83 226.72 624.42 279.05 590.63V433.38C226.7 399.55 272.38 321.19 327.43 349.58L463.62 270.96C466.18 209.04 557.87 209.14 560.38 270.96L696.56 349.59C751.63 321.18 797.27 399.6 744.94 433.39V590.64C797.29 624.47 751.61 702.83 696.56 674.44L560.37 753.06C559.69 779.18 538.18 800.15 511.99 800.12L512 800.11ZM512 295.34C512.14 295.34 512.65 295.34 512.78 295.33H512.62C512.83 295.33 513.04 295.33 513.25 295.31L512.78 295.33C513.01 295.33 513.24 295.31 513.46 295.3H513.25C513.46 295.3 513.67 295.29 513.89 295.27L513.47 295.3C513.68 295.29 513.88 295.27 514.09 295.25L513.89 295.27C514.08 295.25 514.26 295.24 514.45 295.22L514.09 295.26C514.32 295.24 514.54 295.22 514.77 295.19L514.45 295.23C514.66 295.21 514.87 295.18 515.08 295.15L514.77 295.19C514.96 295.17 515.15 295.14 515.34 295.11L515.08 295.15C515.32 295.12 515.55 295.08 515.79 295.04L515.35 295.11L515.92 295.02L515.79 295.04C515.99 295.01 516.19 294.97 516.39 294.93L515.93 295.01C516.14 294.97 516.35 294.94 516.56 294.89L516.4 294.92C516.65 294.87 516.91 294.82 517.16 294.76L516.56 294.89C517.16 294.77 517.75 294.63 518.33 294.46L517.98 294.56C518.17 294.51 518.37 294.45 518.56 294.4L518.34 294.47L518.85 294.32L518.56 294.41C543.5 287.43 538.3 248.98 512.02 249.26C485.72 249 480.55 287.49 505.53 294.43L505.18 294.32C505.36 294.37 505.53 294.43 505.71 294.48L505.53 294.43C505.72 294.49 505.91 294.54 506.1 294.59L505.71 294.48C505.91 294.54 506.12 294.59 506.33 294.65L506.11 294.59C506.63 294.73 507.17 294.85 507.7 294.95L507.48 294.91C507.69 294.95 507.91 294.99 508.13 295.03L507.7 294.95C507.88 294.98 508.06 295.02 508.23 295.05L508.12 295.03L508.7 295.12L508.23 295.05C508.47 295.09 508.71 295.13 508.95 295.16L508.71 295.13C508.9 295.16 509.08 295.18 509.27 295.2L508.95 295.16C509.16 295.19 509.37 295.21 509.59 295.24L509.27 295.2C509.5 295.23 509.72 295.25 509.95 295.27L509.59 295.24C509.78 295.26 509.96 295.28 510.15 295.29L509.95 295.27C510.16 295.29 510.36 295.3 510.57 295.32L510.15 295.29C510.36 295.31 510.57 295.32 510.78 295.33H510.57C510.8 295.33 511.02 295.34 511.25 295.35L510.78 295.33C511.2 295.35 511.61 295.36 512.03 295.36L512 295.34ZM586.92 453.51L672.66 404.01C671.89 400.97 671.42 397.86 671.25 394.74V394.85C671.21 393.99 671.18 393.13 671.18 392.27V392.59C671.1 383.98 673.37 375.4 677.66 367.95L553.91 296.5C547.67 307.36 537.07 315.61 524.99 318.93V412.14C551.47 415.41 574.21 431.19 586.91 453.52L586.92 453.51ZM441.49 455.48C453.34 433.23 474.76 417.47 499.65 412.88V319.1C487.3 315.9 476.43 307.55 470.08 296.49L346.33 367.94C351.43 376.76 353.64 387.19 352.54 397.32V397.29C352.318 399.384 351.961 401.462 351.47 403.51L441.49 455.48ZM731.12 412.11C742.14 405.75 745.92 391.65 739.56 380.63C726.95 358.17 691.65 371.85 696.99 396.64L696.94 396.37C696.97 396.54 697.01 396.72 697.04 396.89L696.99 396.65C697.03 396.87 697.08 397.09 697.13 397.31L697.04 396.89C697.09 397.12 697.14 397.35 697.2 397.59L697.13 397.31C697.17 397.49 697.22 397.67 697.26 397.86L697.19 397.59C697.24 397.79 697.29 397.99 697.34 398.18L697.25 397.85C697.31 398.07 697.36 398.28 697.43 398.49L697.34 398.17C697.39 398.35 697.44 398.54 697.5 398.72L697.43 398.49C697.65 399.26 697.92 400.03 698.22 400.78L698.11 400.5C698.19 400.71 698.28 400.92 698.37 401.13L698.23 400.78L698.47 401.35L698.37 401.13C698.44 401.31 698.52 401.48 698.6 401.65L698.47 401.35C698.57 401.58 698.67 401.8 698.78 402.02L698.61 401.65C698.69 401.84 698.78 402.02 698.87 402.21L698.78 402.03C698.87 402.21 698.96 402.4 699.05 402.58L698.87 402.21C698.98 402.44 699.09 402.66 699.21 402.88L699.05 402.57C699.56 403.58 700.15 404.56 700.8 405.48L700.65 405.26C700.94 405.68 701.24 406.09 701.56 406.49L701.42 406.31C701.53 406.45 701.64 406.59 701.75 406.72L701.56 406.49C701.71 406.68 701.86 406.86 702.02 407.05L701.75 406.73C701.88 406.88 702 407.04 702.13 407.19L702.02 407.06L702.37 407.47L702.13 407.2C702.97 408.18 703.9 409.09 704.89 409.92L704.51 409.6C704.66 409.73 704.82 409.86 704.97 409.99L704.89 409.93C712.1 415.91 722.55 417.1 731.13 412.14L731.12 412.11ZM320.39 408.77C320.72 408.45 321.05 408.12 321.36 407.78L321.27 407.88C321.41 407.73 321.55 407.57 321.69 407.42L321.36 407.78C321.51 407.62 321.66 407.45 321.81 407.28L321.69 407.41C321.83 407.25 321.97 407.08 322.11 406.92L321.8 407.28C321.93 407.14 322.05 406.99 322.17 406.84L322.1 406.92C322.22 406.78 322.33 406.64 322.45 406.49L322.17 406.84C322.33 406.65 322.49 406.45 322.64 406.25L322.45 406.49C322.58 406.33 322.71 406.16 322.83 405.99L322.64 406.24C322.76 406.09 322.87 405.94 322.98 405.78L322.83 405.98C322.95 405.82 323.07 405.65 323.19 405.48L322.98 405.77L323.36 405.24L323.19 405.48C323.67 404.8 324.13 404.08 324.54 403.34L324.36 403.66C324.7 403.08 325 402.49 325.29 401.88L325.12 402.23C325.19 402.09 325.25 401.96 325.32 401.82L325.29 401.88C325.41 401.63 325.52 401.38 325.63 401.12L325.56 401.29C325.95 400.38 326.29 399.46 326.56 398.52L326.51 398.68C326.57 398.48 326.63 398.28 326.68 398.08L326.56 398.52L326.74 397.88L326.69 398.08L326.84 397.51L326.75 397.88C326.88 397.39 326.98 396.9 327.08 396.41L327.04 396.59C332.36 371.81 297.07 358.15 284.46 380.6C271.06 403.29 301.93 427.01 320.4 408.74L320.39 408.77ZM338.16 597.15L393.06 565.45C367.56 536.49 376.64 485.09 409.82 466.48L339.27 425.75C330.28 435.16 317.41 440.59 304.41 440.57V583.46C316.88 583.44 329.24 588.43 338.16 597.16V597.15ZM686.23 596.79C688.99 594.15 692.07 591.86 695.37 589.95L695.1 590.1C700.141 587.149 705.673 585.134 711.43 584.15L710.79 584.26C713.69 583.72 716.64 583.45 719.6 583.44V440.55C706.77 440.57 694.09 435.3 685.1 426.11L597.76 476.53C625.57 480.02 647.15 503.54 647.61 532.18C647.84 545.44 643.44 557.93 635.92 567.73L686.23 596.78V596.79ZM509.02 564.83H590.57C632.22 564.12 632.22 502.15 590.57 501.45H573.11C576.57 434.19 487.26 411.09 460.97 473.75L457.84 481.86C394.74 472.53 381.83 559.45 444.97 564.83C446.11 564.83 506.66 564.85 507.76 564.83C508.11 564.82 508.67 564.84 509.03 564.83H509.02ZM470.08 727.52C476.43 716.46 487.3 708.11 499.65 704.92V590.19C478.43 589.02 432.56 594.58 414.04 582.62L351.07 618.98C352.21 623.08 352.79 627.32 352.81 631.57V631.26C352.837 633.887 352.653 636.512 352.26 639.11L352.33 638.64C352.01 640.92 351.52 643.18 350.87 645.4L350.93 645.2C349.842 648.996 348.297 652.646 346.33 656.07L470.08 727.52ZM553.92 727.52L677.67 656.07C676.99 654.88 676.35 653.67 675.77 652.42L675.84 652.56C672.695 645.901 671.105 638.614 671.19 631.25V631.56C671.21 627.14 671.84 622.72 673.07 618.47L614.77 584.81C607.42 588.26 599.22 590.18 590.57 590.18H525V705.09C537.08 708.41 547.68 716.66 553.92 727.52ZM315.93 651.83C324.7 646.77 328.88 636.81 327.02 627.4L327.06 627.6C326.658 625.48 325.961 623.427 324.99 621.5L325.1 621.72C325.02 621.56 324.94 621.39 324.85 621.23L324.99 621.5C324.468 620.467 323.869 619.475 323.2 618.53L323.36 618.76C323.25 618.59 323.13 618.43 323.01 618.27L323.2 618.53C323.08 618.36 322.95 618.18 322.82 618.01L323.01 618.26C322.87 618.07 322.73 617.89 322.59 617.7L322.82 618C322.71 617.85 322.6 617.71 322.48 617.56L322.58 617.69C322.45 617.52 322.31 617.35 322.17 617.18L322.47 617.55L322.08 617.07L322.17 617.18C304.81 595.74 270.36 619.26 284.42 643.37C290.78 654.39 304.88 658.17 315.9 651.8L315.93 651.83ZM739.55 643.39C753.26 620.03 720.73 596.4 702.75 616.13L702.92 615.95L702.56 616.34L702.76 616.13C702.63 616.27 702.5 616.42 702.37 616.56L702.57 616.34C702.43 616.49 702.3 616.65 702.16 616.8L702.37 616.56L701.96 617.03L702.15 616.8C702.02 616.96 701.88 617.11 701.75 617.27L701.95 617.03C701.49 617.58 701.05 618.16 700.64 618.75L700.77 618.56C700.2 619.36 699.68 620.22 699.21 621.1L699.32 620.89C699.21 621.1 699.1 621.3 699 621.51L699.21 621.1C699.11 621.3 699.01 621.49 698.91 621.69L699 621.51C698.91 621.68 698.83 621.86 698.75 622.03L698.91 621.69C698.81 621.9 698.71 622.1 698.61 622.31L698.74 622.03C698.51 622.52 698.3 623.01 698.1 623.51L698.17 623.32C697.79 624.26 697.48 625.22 697.23 626.19L697.31 625.87L697.16 626.46L697.23 626.19C697.18 626.38 697.14 626.57 697.09 626.76L697.16 626.46C697.11 626.68 697.06 626.9 697.01 627.13L697.09 626.76C697.04 626.96 697 627.17 696.96 627.37L697.01 627.12C696.97 627.3 696.94 627.48 696.9 627.66L696.96 627.37C691.63 652.16 726.93 665.82 739.53 643.38L739.55 643.39ZM512 774.77C537.26 775.1 543.61 738.7 520.26 730.2L520.45 730.28L519.97 730.1L520.26 730.21C520.07 730.14 519.89 730.07 519.7 730L519.98 730.1C519.8 730.03 519.62 729.97 519.44 729.91L519.7 730C519.51 729.93 519.32 729.87 519.13 729.81L519.44 729.91C519.24 729.84 519.04 729.78 518.84 729.71L519.13 729.8C518.93 729.74 518.73 729.67 518.53 729.62L518.83 729.71C518.66 729.66 518.48 729.6 518.3 729.55L518.52 729.61C518.33 729.55 518.14 729.5 517.94 729.45L518.29 729.55C518.08 729.49 517.87 729.43 517.66 729.38L517.93 729.45C517.36 729.3 516.79 729.17 516.21 729.06L516.51 729.12C516.328 729.081 516.145 729.048 515.96 729.02L516.21 729.06C516 729.02 515.79 728.99 515.59 728.95L515.97 729.01C515.75 728.97 515.53 728.94 515.3 728.9L515.59 728.94C515.44 728.92 515.3 728.9 515.15 728.87L515.3 728.89L514.61 728.8L515.14 728.87C514.94 728.84 514.73 728.82 514.53 728.79H514.61C514.42 728.78 514.22 728.76 514.03 728.74L514.54 728.79C514.32 728.77 514.1 728.74 513.88 728.73H514.04C513.82 728.73 513.61 728.71 513.39 728.69L513.89 728.73C513.68 728.71 513.47 728.7 513.26 728.69H513.4C513.19 728.69 512.99 728.68 512.78 728.67L513.26 728.69C512.6 728.65 511.87 728.65 511.21 728.67H511.37C511.16 728.67 510.94 728.67 510.73 728.69L511.21 728.67C511 728.67 510.8 728.69 510.59 728.7H510.73C510.52 728.7 510.31 728.72 510.1 728.74L510.6 728.7C510.38 728.71 510.16 728.73 509.95 728.75H510.11C509.89 728.75 509.67 728.78 509.45 728.8L509.96 728.75L509.38 728.81H509.46C509.25 728.82 509.05 728.85 508.84 728.88L509.38 728.81C509.16 728.84 508.93 728.86 508.71 728.9L508.84 728.88C508.69 728.9 508.54 728.92 508.39 728.95L508.71 728.9C508.48 728.93 508.25 728.97 508.02 729.01L508.38 728.95L507.83 729.04L508.02 729.01C507.83 729.04 507.65 729.08 507.46 729.12L507.83 729.05C507.24 729.16 506.66 729.29 506.09 729.44L506.31 729.38C506.1 729.43 505.9 729.49 505.69 729.55L506.08 729.44C505.89 729.49 505.7 729.54 505.51 729.6L505.68 729.55C505.5 729.6 505.31 729.66 505.13 729.71L505.5 729.6C505.29 729.66 505.08 729.73 504.87 729.79L505.12 729.71C504.93 729.77 504.74 729.83 504.55 729.9L504.87 729.79C504.67 729.85 504.48 729.92 504.29 729.99L504.55 729.9C504.37 729.96 504.19 730.02 504.01 730.09L504.29 729.99L503.72 730.2L504.01 730.09C503.86 730.15 503.7 730.2 503.55 730.26L503.71 730.2C480.36 738.7 486.74 775.11 511.98 774.77H512Z" fill="white"/>
</g>
<defs>
<clipPath id="clip0_2_3564">
<rect width="1024" height="1024" fill="white"/>
</clipPath>
</defs>
</svg>
